X:1
T:Miss Garden Campbell of Troup’s Hornpipe
T:Miss Garden Campbell of Troup’s Hornpipe
T:William Christie (1778-1849)
C:William Christie (1778-1849)
L:1/8
M:3/2
K:F
V:1 treble 
V:1
 F2 AB{d} c2 B2 B2{B} A4 | (F2 d2){e} d2 c2{d} (c2 .B2) | A2 AB{d} c2 B2{B} A4 | A2 B2 G2 E2 F4 :| %4
 Tf2 fg{b} a2 g2{g} Tf4 | d2 f2 c2 f2{fg} a2 g2 | f2 fg{b} a2 g2{g} f4 | d2 fd (cb).a.g{g} f4 | %8
 f2 fg{fg} a2 g2{gfe} f4 | d2 fe (dc).B.A (GF).E.D | C2 FA c2 dB{B} A2 Bd | (cf).d.B ABGE F4 || %12

